lib/flags/cw-curacao.svg

<svg xmlns="http://www.w3.org/2000/svg" fill="none" aria-hidden="true" viewBox="0 0 42 30"><g id="Country=CW - CuraÃ§ao, Size=sm (36x24)" filter="url(#filter0_dd_91_28882)"><g clip-path="url(#clip0_91_28882)"><g id="flag"><mask id="mask0_91_28882" width="36" height="24" x="3" y="2" maskUnits="userSpaceOnUse" style="mask-type:alpha"><rect id="mask" width="36" height="24" x="3" y="2" fill="white"/></mask><g mask="url(#mask0_91_28882)"><g id="contents"><path id="background" fill="#2E42A5" fill-rule="evenodd" d="M3 2V26H39V2H3Z" clip-rule="evenodd"/><mask id="mask1_91_28882" width="36" height="24" x="3" y="2" maskUnits="userSpaceOnUse" style="mask-type:alpha"><path id="background_2" fill="white" fill-rule="evenodd" d="M3 2V26H39V2H3Z" clip-rule="evenodd"/></mask><g mask="url(#mask1_91_28882)"><path id="Star 5" fill="#F7FCFF" fill-rule="evenodd" d="M7.78623 8.14923L5.54877 9.19891L6.62907 7.33053L5.25 5.96315L6.96376 5.90693L7.78623 4L8.41387 5.90693L10.4193 5.96315L8.97541 7.33053L9.89143 9.19891L7.78623 8.14923Z" clip-rule="evenodd"/><path id="Star 5_2" fill="#F7FCFF" fill-rule="evenodd" d="M15.7714 13.0766L13.01 14.1048L14.0933 11.5282L11.6924 9.7993H14.5693L15.7714 7.01221L16.6888 9.7993H19.5702L17.5226 11.5282L18.5393 14.1048L15.7714 13.0766Z" clip-rule="evenodd"/><path id="bottom" fill="#F9E813" fill-rule="evenodd" d="M3 16V20H39V16H3Z" clip-rule="evenodd"/></g></g></g></g></g></g><defs><filter id="filter0_dd_91_28882" width="42" height="30" x="0" y="0" color-interpolation-filters="sRGB" filterUnits="userSpaceOnUse"><feFlood flood-opacity="0" result="BackgroundImageFix"/><feColorMatrix in="SourceAlpha" result="hardAlpha" values="0 0 0 0 0 0 0 0 0 0 0 0 0 0 0 0 0 0 127 0"/><feOffset dy="1"/><feGaussianBlur stdDeviation="1"/><feColorMatrix values="0 0 0 0 0.0627451 0 0 0 0 0.0941176 0 0 0 0 0.156863 0 0 0 0.06 0"/><feBlend in2="BackgroundImageFix" result="effect1_dropShadow_91_28882"/><feColorMatrix in="SourceAlpha" result="hardAlpha" values="0 0 0 0 0 0 0 0 0 0 0 0 0 0 0 0 0 0 127 0"/><feOffset dy="1"/><feGaussianBlur stdDeviation="1.5"/><feColorMatrix values="0 0 0 0 0.0627451 0 0 0 0 0.0941176 0 0 0 0 0.156863 0 0 0 0.1 0"/><feBlend in2="effect1_dropShadow_91_28882" result="effect2_dropShadow_91_28882"/><feBlend in="SourceGraphic" in2="effect2_dropShadow_91_28882" result="shape"/></filter><clipPath id="clip0_91_28882"><rect width="36" height="24" x="3" y="2" fill="white" rx="2"/></clipPath></defs></svg>

<svg xmlns="http://www.w3.org/2000/svg" fill="none" aria-hidden="true" viewBox="0 0 42 30"><g filter="url(#a)"><g clip-path="url(#b)"><mask id="c" width="36" height="24" x="3" y="2" maskUnits="userSpaceOnUse" style="mask-type:alpha"><path fill="#fff" d="M3 2h36v24H3z"/></mask><g mask="url(#c)"><path fill="#2E42A5" fill-rule="evenodd" d="M3 2v24h36V2H3Z" clip-rule="evenodd"/><mask id="d" width="36" height="24" x="3" y="2" maskUnits="userSpaceOnUse" style="mask-type:alpha"><path fill="#fff" fill-rule="evenodd" d="M3 2v24h36V2H3Z" clip-rule="evenodd"/></mask><g fill-rule="evenodd" clip-rule="evenodd" mask="url(#d)"><path fill="#F7FCFF" d="M7.786 8.15 5.55 9.198 6.63 7.33 5.25 5.963l1.714-.056L7.786 4l.628 1.907 2.005.056-1.444 1.368.916 1.868-2.105-1.05Zm7.985 4.927-2.761 1.028 1.083-2.577-2.4-1.729h2.876l1.202-2.787.918 2.787h2.881l-2.047 1.73 1.016 2.576-2.768-1.028Z"/><path fill="#F9E813" d="M3 16v4h36v-4H3Z"/></g></g></g></g><defs><clipPath id="b"><rect width="36" height="24" x="3" y="2" fill="#fff" rx="2"/></clipPath><filter id="a" width="42" height="30" x="0" y="0" color-interpolation-filters="sRGB" filterUnits="userSpaceOnUse"><feFlood flood-opacity="0" result="BackgroundImageFix"/><feColorMatrix in="SourceAlpha" result="hardAlpha" values="0 0 0 0 0 0 0 0 0 0 0 0 0 0 0 0 0 0 127 0"/><feOffset dy="1"/><feGaussianBlur stdDeviation="1"/><feColorMatrix values="0 0 0 0 0.0627451 0 0 0 0 0.0941176 0 0 0 0 0.156863 0 0 0 0.06 0"/><feBlend in2="BackgroundImageFix" result="effect1_dropShadow_91_28882"/><feColorMatrix in="SourceAlpha" result="hardAlpha" values="0 0 0 0 0 0 0 0 0 0 0 0 0 0 0 0 0 0 127 0"/><feOffset dy="1"/><feGaussianBlur stdDeviation="1.5"/><feColorMatrix values="0 0 0 0 0.0627451 0 0 0 0 0.0941176 0 0 0 0 0.156863 0 0 0 0.1 0"/><feBlend in2="effect1_dropShadow_91_28882" result="effect2_dropShadow_91_28882"/><feBlend in="SourceGraphic" in2="effect2_dropShadow_91_28882" result="shape"/></filter></defs></svg>
